!!!id: bhatk3201s
!!!vol: 3
!!!page: 201
!!!sthayee: Bajere mori payal
!!!raag: bihag
!!!taal: teentaal
!!!tempo: madhyalaya
**kern
!!data: // =  =  =  =/  =  =  =  =/  =  =  =  =/  =  =  =  P/
==1
4ryy
4ryy
4ryy
4ryy
=
4ryy
4ryy
4ryy
4ryy
=
4ryy
4ryy
4ryy
4ryy
=
4ryy
4ryy
4ryy
4g
!!data: // >PG  M  [G  S]/  >SN,  -  >D,N,  P,/  >D,P,  P,  N,  N,/  S  S  -  P/
==2
gq
4e
4f
4eH
4ch
=
cq
2B
Aq
4B
4G
=
Aq
4G
4G
4B
4B
=
4c
2c
4g
!!data: // >PG  M  [G  S]/  >SN,  -  >D,N,  P,/  P,  N,  S  R/  N,  S  -  -/
==3
gq
4e
4f
4eH
4ch
=
cq
2B
Aq
4B
4G
=
4G
4B
4c
4d
=
4B
2.c
!!>SN,  S  G  M/  P  P  N  N/  S'S'  G'R'  S'N  DP/  MP  MG  RS  P/
==
*-
